Hatter-kde-dark/actions/22/snap-nodes-center.svg

<?xml version="1.0" encoding="UTF-8"?>
<svg viewBox="0 0 22 22" xmlns="http://www.w3.org/2000/svg">
 <defs id="defs3051">
  <style id="current-color-scheme" type="text/css">.ColorScheme-Text {
        color:#dedede;
      }
      .ColorScheme-Highlight {
        color:#3daee9;
      }</style>
 </defs>
 <path class="ColorScheme-Text" d="m11 4a8 7 0 0 0-8 7 8 7 0 0 0 8 7 8 7 0 0 0 8-7 8 7 0 0 0-8-7zm0 1a7 6 0 0 1 7 6 7 6 0 0 1-7 6 7 6 0 0 1-7-6 7 6 0 0 1 7-6z" fill="currentColor"/>
 <path class="ColorScheme-Highlight" d="m11 9a2 2 0 0 0-2 2 2 2 0 0 0 2 2 2 2 0 0 0 2-2 2 2 0 0 0-2-2zm0 1a1 1 0 0 1 1 1 1 1 0 0 1-1 1 1 1 0 0 1-1-1 1 1 0 0 1 1-1z" fill="currentColor"/>
</svg>

<svg xmlns="http://www.w3.org/2000/svg" viewBox="0 0 22 22">
  <defs id="defs3051">
    <style type="text/css" id="current-color-scheme">
      .ColorScheme-Text {
        color:#dedede;
      }
      .ColorScheme-Highlight {
        color:#3daee9;
      }
      </style>
  </defs>
 <path 
     style="fill:currentColor;fill-opacity:1;stroke:none" 
     d="M 11 4 A 8 7 0 0 0 3 11 A 8 7 0 0 0 11 18 A 8 7 0 0 0 19 11 A 8 7 0 0 0 11 4 z M 11 5 A 7 6 0 0 1 18 11 A 7 6 0 0 1 11 17 A 7 6 0 0 1 4 11 A 7 6 0 0 1 11 5 z "
     class="ColorScheme-Text"
     />
 <path 
     style="fill:currentColor;fill-opacity:1;stroke:none" 
     d="M 11 9 A 2 2 0 0 0 9 11 A 2 2 0 0 0 11 13 A 2 2 0 0 0 13 11 A 2 2 0 0 0 11 9 z M 11 10 A 1 1 0 0 1 12 11 A 1 1 0 0 1 11 12 A 1 1 0 0 1 10 11 A 1 1 0 0 1 11 10 z "
     class="ColorScheme-Highlight"
     />
</svg>
